; generated by Slic3r Prusa Edition 1.42.0-beta2+win64 on 2019-05-07 at 12:06:19

; 

; external perimeters extrusion width = 0.39mm
; perimeters extrusion width = 0.39mm
; infill extrusion width = 0.39mm
; solid infill extrusion width = 0.39mm
; top infill extrusion width = 0.35mm
; first layer extrusion width = 0.63mm

M107 ; disable fan
M84 S0 ; don't let go of motors
M301 P10 I0.9 D250 ; set better PID parameters
M108 S155 ; make sure extruder and electronics fans are running
M104 S175
M140 S65
; now we've started heating, but let's move off the platform while we wait (and drool)
G28 X0 Y0; home X and Y
G1 F10800 ; set high speed
G1 Y20 ; move into the platform along Y
G1 X205 ; move off the platform end along X
G28 Z0 ; home Z now - blobs won't hit the platform
G1 F400
G1 Z10 ; lift Z a little
M190 S65
M109 S175 ; heat nozzle
G28 Z0 ; home Z
G92 E0 ; reset extruder position to 0
G1 F300 ; set suitable speed
G1 E25 ; extrude 25mm
G92 E0 ; reset extruder position to 0
G1 F10800 ; set high speed
G1 X0 ; wipe nozzle and move to X0
; Filament gcode
G21 ; set units to millimeters
G90 ; use absolute coordinates
M82 ; use absolute distances for extrusion
G92 E0 ; reset extrusion distance
G1 E-0.50000 F1200.00000 ; retract
G92 E0 ; reset extrusion distance
G1 Z0.250 F18000.000 ; move to next layer (0)
G1 X47.300 Y108.697 ; move to first skirt point
G1 E0.50000 F1200.00000 ; unretract
M204 S2000 ; adjust acceleration
G1 F1800
G1 X48.222 Y108.377 E0.55217 ; skirt
G1 X49.097 Y108.203 E0.59985 ; skirt
G1 X49.987 Y108.143 E0.64753 ; skirt
G1 X150.006 Y108.143 E5.99318 ; skirt
G1 X151.299 Y108.267 E6.06258 ; skirt
G1 X152.545 Y108.633 E6.13197 ; skirt
G1 X153.699 Y109.226 E6.20136 ; skirt
G1 X154.721 Y110.027 E6.27076 ; skirt
G1 X155.574 Y111.006 E6.34015 ; skirt
G1 X156.227 Y112.129 E6.40955 ; skirt
G1 X156.657 Y113.354 E6.47894 ; skirt
G1 X156.847 Y114.638 E6.54833 ; skirt
G1 X156.857 Y135.032 E7.63832 ; skirt
G1 X156.739 Y136.267 E7.70462 ; skirt
G1 X156.497 Y137.193 E7.75575 ; skirt
G1 X156.126 Y138.081 E7.80722 ; skirt
G1 X155.634 Y138.909 E7.85870 ; skirt
G1 X155.030 Y139.660 E7.91018 ; skirt
G1 X154.333 Y140.315 E7.96131 ; skirt
G1 X153.545 Y140.869 E8.01278 ; skirt
G1 X152.688 Y141.308 E8.06426 ; skirt
G1 X151.778 Y141.623 E8.11574 ; skirt
G1 X150.903 Y141.797 E8.16342 ; skirt
G1 X150.013 Y141.857 E8.21110 ; skirt
G1 X49.696 Y141.850 E13.57265 ; skirt
G1 X48.619 Y141.716 E13.63068 ; skirt
G1 X47.582 Y141.416 E13.68836 ; skirt
G1 X46.605 Y140.958 E13.74605 ; skirt
G1 X45.707 Y140.347 E13.80407 ; skirt
G1 X44.921 Y139.607 E13.86176 ; skirt
G1 X44.258 Y138.748 E13.91978 ; skirt
G1 X43.741 Y137.801 E13.97747 ; skirt
G1 X43.377 Y136.778 E14.03549 ; skirt
G1 X43.204 Y135.915 E14.08248 ; skirt
G1 X43.143 Y135.038 E14.12948 ; skirt
G1 X43.143 Y114.968 E15.20218 ; skirt
G1 X43.241 Y113.848 E15.26228 ; skirt
G1 X43.473 Y112.899 E15.31444 ; skirt
G1 X43.837 Y111.994 E15.36661 ; skirt
G1 X44.326 Y111.149 E15.41878 ; skirt
G1 X44.930 Y110.383 E15.47094 ; skirt
G1 X45.637 Y109.710 E15.52311 ; skirt
G1 X46.433 Y109.144 E15.57527 ; skirt
G1 X47.254 Y108.721 E15.62463 ; skirt
M204 S3000 ; adjust acceleration
G1 X47.514 Y109.230 F18000.000 ; move to first skirt point
M204 S2000 ; adjust acceleration
G1 F1800
G1 X48.401 Y108.921 E15.67482 ; skirt
G1 X49.190 Y108.767 E15.71782 ; skirt
G1 X49.987 Y108.714 E15.76050 ; skirt
G1 X150.006 Y108.714 E21.10615 ; skirt
G1 X151.194 Y108.829 E21.16995 ; skirt
G1 X152.339 Y109.166 E21.23374 ; skirt
G1 X153.400 Y109.713 E21.29754 ; skirt
G1 X154.338 Y110.451 E21.36133 ; skirt
G1 X155.120 Y111.353 E21.42513 ; skirt
G1 X155.717 Y112.387 E21.48892 ; skirt
G1 X156.106 Y113.509 E21.55239 ; skirt
G1 X156.278 Y114.690 E21.61618 ; skirt
G1 X156.286 Y135.025 E22.70300 ; skirt
G1 X156.189 Y136.097 E22.76053 ; skirt
G1 X155.972 Y136.961 E22.80816 ; skirt
G1 X155.632 Y137.792 E22.85612 ; skirt
G1 X155.180 Y138.560 E22.90375 ; skirt
G1 X154.625 Y139.257 E22.95138 ; skirt
G1 X153.976 Y139.868 E22.99901 ; skirt
G1 X153.243 Y140.385 E23.04697 ; skirt
G1 X152.449 Y140.789 E23.09461 ; skirt
G1 X151.599 Y141.079 E23.14257 ; skirt
G1 X150.810 Y141.233 E23.18557 ; skirt
G1 X150.013 Y141.286 E23.22825 ; skirt
G1 X49.740 Y141.280 E28.58747 ; skirt
G1 X48.751 Y141.160 E28.64071 ; skirt
G1 X47.788 Y140.883 E28.69429 ; skirt
G1 X46.881 Y140.457 E28.74786 ; skirt
G1 X46.058 Y139.896 E28.80110 ; skirt
G1 X45.334 Y139.211 E28.85434 ; skirt
G1 X44.727 Y138.421 E28.90758 ; skirt
G1 X44.253 Y137.545 E28.96083 ; skirt
G1 X43.921 Y136.599 E29.01440 ; skirt
G1 X43.714 Y135.038 E29.09859 ; skirt
G1 X43.714 Y114.975 E30.17085 ; skirt
G1 X43.795 Y113.995 E30.22343 ; skirt
G1 X44.003 Y113.116 E30.27172 ; skirt
G1 X44.336 Y112.275 E30.32001 ; skirt
G1 X44.788 Y111.486 E30.36864 ; skirt
G1 X45.346 Y110.775 E30.41693 ; skirt
G1 X46.000 Y110.152 E30.46522 ; skirt
G1 X46.741 Y109.625 E30.51384 ; skirt
G1 X47.467 Y109.253 E30.55741 ; skirt
M204 S3000 ; adjust acceleration
G1 E30.05741 F1200.00000 ; retract
G92 E0 ; reset extrusion distance
G1 X149.116 Y134.116 F18000.000 ; move to first perimeter point
G1 E0.50000 F1200.00000 ; unretract
M204 S2000 ; adjust acceleration
G1 F1800
G1 X50.884 Y134.116 E5.75016 ; perimeter
G1 X50.884 Y115.884 E6.72461 ; perimeter
G1 X149.116 Y115.884 E11.97478 ; perimeter
G1 X149.116 Y134.064 E12.94642 ; perimeter
M204 S3000 ; adjust acceleration
G1 X149.688 Y134.687 F18000.000 ; move to first perimeter point
M204 S2000 ; adjust acceleration
G1 F1800
G1 X50.313 Y134.688 E18.25766 ; perimeter
G1 X50.312 Y115.313 E19.29318 ; perimeter
G1 X149.687 Y115.312 E24.60442 ; perimeter
G1 X149.688 Y134.635 E25.63713 ; perimeter
M204 S3000 ; adjust acceleration
G1 X149.338 Y134.665 F18000.000 ; move inwards before travel
G1 E25.13713 F1200.00000 ; retract
G92 E0 ; reset extrusion distance
G1 X148.945 Y117.214 F18000.000 ; move to first infill point
G1 E0.50000 F1200.00000 ; unretract
M204 S2000 ; adjust acceleration
G1 F1800
G1 X148.043 Y116.312 E0.56834 ; infill
G1 X147.233 Y116.312 E0.61179 ; infill
G1 X148.688 Y117.767 E0.72208 ; infill
G1 X148.688 Y118.578 E0.76553 ; infill
G1 X146.422 Y116.312 E0.93726 ; infill
G1 X145.612 Y116.312 E0.98071 ; infill
G1 X148.688 Y119.388 E1.21389 ; infill
G1 X148.688 Y120.199 E1.25733 ; infill
G1 X144.801 Y116.312 E1.55195 ; infill
G1 X143.991 Y116.312 E1.59540 ; infill
G1 X148.688 Y121.009 E1.95146 ; infill
G1 X148.688 Y121.819 E1.99490 ; infill
G1 X143.181 Y116.312 E2.41240 ; infill
G1 X142.370 Y116.312 E2.45585 ; infill
G1 X148.688 Y122.630 E2.93479 ; infill
G1 X148.688 Y123.440 E2.97824 ; infill
G1 X141.560 Y116.312 E3.51862 ; infill
G1 X140.749 Y116.312 E3.56207 ; infill
G1 X148.688 Y124.251 E4.16389 ; infill
G1 X148.688 Y125.061 E4.20734 ; infill
G1 X139.939 Y116.312 E4.87060 ; infill
G1 X139.128 Y116.312 E4.91405 ; infill
G1 X148.688 Y125.872 E5.63876 ; infill
G1 X148.688 Y126.682 E5.68220 ; infill
G1 X138.318 Y116.312 E6.46835 ; infill
G1 X137.507 Y116.312 E6.51180 ; infill
G1 X148.688 Y127.492 E7.35939 ; infill
G1 X148.688 Y128.303 E7.40284 ; infill
G1 X136.697 Y116.312 E8.31187 ; infill
G1 X135.887 Y116.312 E8.35531 ; infill
G1 X148.688 Y129.113 E9.32579 ; infill
G1 X148.688 Y129.924 E9.36923 ; infill
G1 X135.076 Y116.312 E10.40115 ; infill
G1 X134.266 Y116.312 E10.44460 ; infill
G1 X148.688 Y130.734 E11.53795 ; infill
G1 X148.688 Y131.545 E11.58140 ; infill
G1 X133.455 Y116.312 E12.73620 ; infill
G1 X132.645 Y116.312 E12.77964 ; infill
G1 X148.688 Y132.355 E13.99588 ; infill
G1 X148.688 Y133.166 E14.03933 ; infill
G1 X131.834 Y116.312 E15.31701 ; infill
G1 X131.024 Y116.312 E15.36045 ; infill
G1 X148.399 Y133.688 E16.67771 ; infill
G1 X147.589 Y133.688 E16.72116 ; infill
G1 X130.214 Y116.312 E18.03842 ; infill
G1 X129.403 Y116.312 E18.08186 ; infill
G1 X146.778 Y133.688 E19.39912 ; infill
G1 X145.968 Y133.688 E19.44257 ; infill
G1 X128.593 Y116.312 E20.75983 ; infill
G1 X127.782 Y116.312 E20.80327 ; infill
G1 X145.158 Y133.688 E22.12053 ; infill
G1 X144.347 Y133.688 E22.16398 ; infill
G1 X126.972 Y116.312 E23.48124 ; infill
G1 X126.161 Y116.312 E23.52468 ; infill
G1 X143.537 Y133.688 E24.84194 ; infill
G1 X142.726 Y133.688 E24.88539 ; infill
G1 X125.351 Y116.312 E26.20264 ; infill
G1 X124.540 Y116.312 E26.24609 ; infill
G1 X141.916 Y133.688 E27.56335 ; infill
G1 X141.105 Y133.688 E27.60679 ; infill
G1 X123.730 Y116.312 E28.92405 ; infill
G1 X122.920 Y116.312 E28.96750 ; infill
G1 X140.295 Y133.688 E30.28476 ; infill
G1 X139.484 Y133.688 E30.32820 ; infill
G1 X122.109 Y116.312 E31.64546 ; infill
G1 X121.299 Y116.312 E31.68891 ; infill
G1 X138.674 Y133.688 E33.00617 ; infill
G1 X137.864 Y133.688 E33.04961 ; infill
G1 X120.488 Y116.312 E34.36687 ; infill
G1 X119.678 Y116.312 E34.41032 ; infill
G1 X137.053 Y133.688 E35.72758 ; infill
G1 X136.243 Y133.688 E35.77102 ; infill
G1 X118.867 Y116.312 E37.08828 ; infill
G1 X118.057 Y116.312 E37.13173 ; infill
G1 X135.432 Y133.688 E38.44899 ; infill
G1 X134.622 Y133.688 E38.49243 ; infill
G1 X117.246 Y116.312 E39.80969 ; infill
G1 X116.436 Y116.312 E39.85314 ; infill
G1 X133.811 Y133.688 E41.17039 ; infill
G1 X133.001 Y133.688 E41.21384 ; infill
G1 X115.626 Y116.312 E42.53110 ; infill
G1 X114.815 Y116.312 E42.57454 ; infill
G1 X132.190 Y133.688 E43.89180 ; infill
G1 X131.380 Y133.688 E43.93525 ; infill
G1 X114.005 Y116.312 E45.25251 ; infill
G1 X113.194 Y116.312 E45.29595 ; infill
G1 X130.570 Y133.688 E46.61321 ; infill
G1 X129.759 Y133.688 E46.65666 ; infill
G1 X112.384 Y116.312 E47.97392 ; infill
G1 X111.573 Y116.312 E48.01736 ; infill
G1 X128.949 Y133.688 E49.33462 ; infill
G1 X128.138 Y133.688 E49.37807 ; infill
G1 X110.763 Y116.312 E50.69533 ; infill
G1 X109.952 Y116.312 E50.73877 ; infill
G1 X127.328 Y133.688 E52.05603 ; infill
G1 X126.517 Y133.688 E52.09948 ; infill
G1 X109.142 Y116.312 E53.41673 ; infill
G1 X108.332 Y116.312 E53.46018 ; infill
G1 X125.707 Y133.688 E54.77744 ; infill
G1 X124.896 Y133.688 E54.82088 ; infill
G1 X107.521 Y116.312 E56.13814 ; infill
G1 X106.711 Y116.312 E56.18159 ; infill
G1 X124.086 Y133.688 E57.49885 ; infill
G1 X123.276 Y133.688 E57.54229 ; infill
G1 X105.900 Y116.312 E58.85955 ; infill
G1 X105.090 Y116.312 E58.90300 ; infill
G1 X122.465 Y133.688 E60.22026 ; infill
G1 X121.655 Y133.688 E60.26370 ; infill
G1 X104.279 Y116.312 E61.58096 ; infill
G1 X103.469 Y116.312 E61.62441 ; infill
G1 X120.844 Y133.688 E62.94167 ; infill
G1 X120.034 Y133.688 E62.98511 ; infill
G1 X102.658 Y116.312 E64.30237 ; infill
G1 X101.848 Y116.312 E64.34582 ; infill
G1 X119.223 Y133.688 E65.66307 ; infill
G1 X118.413 Y133.688 E65.70652 ; infill
G1 X101.038 Y116.312 E67.02378 ; infill
G1 X100.227 Y116.312 E67.06722 ; infill
G1 X117.602 Y133.688 E68.38448 ; infill
G1 X116.792 Y133.688 E68.42793 ; infill
G1 X99.417 Y116.312 E69.74519 ; infill
G1 X98.606 Y116.312 E69.78863 ; infill
G1 X115.982 Y133.688 E71.10589 ; infill
G1 X115.171 Y133.688 E71.14934 ; infill
G1 X97.796 Y116.312 E72.46660 ; infill
G1 X96.985 Y116.312 E72.51004 ; infill
G1 X114.361 Y133.688 E73.82730 ; infill
G1 X113.550 Y133.688 E73.87075 ; infill
G1 X96.175 Y116.312 E75.18801 ; infill
G1 X95.365 Y116.312 E75.23145 ; infill
G1 X112.740 Y133.688 E76.54871 ; infill
G1 X111.929 Y133.688 E76.59216 ; infill
G1 X94.554 Y116.312 E77.90941 ; infill
G1 X93.744 Y116.312 E77.95286 ; infill
G1 X111.119 Y133.688 E79.27012 ; infill
G1 X110.309 Y133.688 E79.31356 ; infill
G1 X92.933 Y116.312 E80.63082 ; infill
G1 X92.123 Y116.312 E80.67427 ; infill
G1 X109.498 Y133.688 E81.99153 ; infill
G1 X108.688 Y133.688 E82.03497 ; infill
G1 X91.312 Y116.312 E83.35223 ; infill
G1 X90.502 Y116.312 E83.39568 ; infill
G1 X107.877 Y133.688 E84.71294 ; infill
G1 X107.067 Y133.688 E84.75638 ; infill
G1 X89.691 Y116.312 E86.07364 ; infill
G1 X88.881 Y116.312 E86.11709 ; infill
G1 X106.256 Y133.688 E87.43434 ; infill
G1 X105.446 Y133.688 E87.47779 ; infill
G1 X88.071 Y116.312 E88.79505 ; infill
G1 X87.260 Y116.312 E88.83849 ; infill
G1 X104.635 Y133.688 E90.15575 ; infill
G1 X103.825 Y133.688 E90.19920 ; infill
G1 X86.450 Y116.312 E91.51646 ; infill
G1 X85.639 Y116.312 E91.55990 ; infill
G1 X103.015 Y133.688 E92.87716 ; infill
G1 X102.204 Y133.688 E92.92061 ; infill
G1 X84.829 Y116.312 E94.23787 ; infill
G1 X84.018 Y116.312 E94.28131 ; infill
G1 X101.394 Y133.688 E95.59857 ; infill
G1 X100.583 Y133.688 E95.64202 ; infill
G1 X83.208 Y116.312 E96.95928 ; infill
G1 X82.397 Y116.312 E97.00272 ; infill
G1 X99.773 Y133.688 E98.31998 ; infill
G1 X98.962 Y133.688 E98.36343 ; infill
G1 X81.587 Y116.312 E99.68068 ; infill
G1 X80.777 Y116.312 E99.72413 ; infill
G1 X98.152 Y133.688 E101.04139 ; infill
G1 X97.341 Y133.688 E101.08483 ; infill
G1 X79.966 Y116.312 E102.40209 ; infill
G1 X79.156 Y116.312 E102.44554 ; infill
G1 X96.531 Y133.688 E103.76280 ; infill
G1 X95.721 Y133.688 E103.80624 ; infill
G1 X78.345 Y116.312 E105.12350 ; infill
G1 X77.535 Y116.312 E105.16695 ; infill
G1 X94.910 Y133.688 E106.48421 ; infill
G1 X94.100 Y133.688 E106.52765 ; infill
G1 X76.724 Y116.312 E107.84491 ; infill
G1 X75.914 Y116.312 E107.88836 ; infill
G1 X93.289 Y133.688 E109.20561 ; infill
G1 X92.479 Y133.688 E109.24906 ; infill
G1 X75.103 Y116.312 E110.56632 ; infill
G1 X74.293 Y116.312 E110.60976 ; infill
G1 X91.668 Y133.688 E111.92702 ; infill
G1 X90.858 Y133.688 E111.97047 ; infill
G1 X73.483 Y116.312 E113.28773 ; infill
G1 X72.672 Y116.312 E113.33117 ; infill
G1 X90.047 Y133.688 E114.64843 ; infill
G1 X89.237 Y133.688 E114.69188 ; infill
G1 X71.862 Y116.312 E116.00914 ; infill
G1 X71.051 Y116.312 E116.05258 ; infill
G1 X88.427 Y133.688 E117.36984 ; infill
G1 X87.616 Y133.688 E117.41329 ; infill
G1 X70.241 Y116.312 E118.73054 ; infill
G1 X69.430 Y116.312 E118.77399 ; infill
G1 X86.806 Y133.688 E120.09125 ; infill
G1 X85.995 Y133.688 E120.13469 ; infill
G1 X68.620 Y116.312 E121.45195 ; infill
G1 X67.809 Y116.312 E121.49540 ; infill
G1 X85.185 Y133.688 E122.81266 ; infill
G1 X84.374 Y133.688 E122.85610 ; infill
G1 X66.999 Y116.312 E124.17336 ; infill
G1 X66.189 Y116.312 E124.21681 ; infill
G1 X83.564 Y133.688 E125.53407 ; infill
G1 X82.753 Y133.688 E125.57751 ; infill
G1 X65.378 Y116.312 E126.89477 ; infill
G1 X64.568 Y116.312 E126.93822 ; infill
G1 X81.943 Y133.688 E128.25547 ; infill
G1 X81.133 Y133.688 E128.29892 ; infill
G1 X63.757 Y116.312 E129.61618 ; infill
G1 X62.947 Y116.312 E129.65962 ; infill
G1 X80.322 Y133.688 E130.97688 ; infill
G1 X79.512 Y133.688 E131.02033 ; infill
G1 X62.136 Y116.312 E132.33759 ; infill
G1 X61.326 Y116.312 E132.38103 ; infill
G1 X78.701 Y133.688 E133.69829 ; infill
G1 X77.891 Y133.688 E133.74174 ; infill
G1 X60.516 Y116.312 E135.05900 ; infill
G1 X59.705 Y116.312 E135.10244 ; infill
G1 X77.080 Y133.688 E136.41970 ; infill
G1 X76.270 Y133.688 E136.46315 ; infill
G1 X58.895 Y116.312 E137.78041 ; infill
G1 X58.084 Y116.312 E137.82385 ; infill
G1 X75.460 Y133.688 E139.14111 ; infill
G1 X74.649 Y133.688 E139.18455 ; infill
G1 X57.274 Y116.312 E140.50181 ; infill
G1 X56.463 Y116.312 E140.54526 ; infill
G1 X73.839 Y133.688 E141.86252 ; infill
G1 X73.028 Y133.688 E141.90596 ; infill
G1 X55.653 Y116.312 E143.22322 ; infill
G1 X54.842 Y116.312 E143.26667 ; infill
G1 X72.218 Y133.688 E144.58393 ; infill
G1 X71.407 Y133.688 E144.62737 ; infill
G1 X54.032 Y116.312 E145.94463 ; infill
G1 X53.222 Y116.312 E145.98808 ; infill
G1 X70.597 Y133.688 E147.30533 ; infill
G1 X69.786 Y133.688 E147.34878 ; infill
G1 X52.411 Y116.312 E148.66604 ; infill
G1 X51.601 Y116.312 E148.70948 ; infill
G1 X68.976 Y133.688 E150.02674 ; infill
G1 X68.166 Y133.688 E150.07019 ; infill
G1 X51.312 Y116.834 E151.34787 ; infill
G1 X51.312 Y117.645 E151.39131 ; infill
G1 X67.355 Y133.688 E152.60755 ; infill
G1 X66.545 Y133.688 E152.65099 ; infill
G1 X51.312 Y118.455 E153.80579 ; infill
G1 X51.312 Y119.266 E153.84923 ; infill
G1 X65.734 Y133.688 E154.94259 ; infill
G1 X64.924 Y133.688 E154.98603 ; infill
G1 X51.312 Y120.076 E156.01794 ; infill
G1 X51.312 Y120.887 E156.06139 ; infill
G1 X64.113 Y133.688 E157.03186 ; infill
G1 X63.303 Y133.688 E157.07530 ; infill
G1 X51.312 Y121.697 E157.98433 ; infill
